X:11702
T:Banish Misfortune
R:Jig
B:Tuneworks Tunebook (https://www.tuneworks.co.uk/)
G:Tuneworks
Z:Jon Warbrick <jon.warbrick@googlemail.com>
M:6/8
L:1/8
K:DMix
|: "D"fed cAG | A2 d cAG | "D"F2D DFD | FEF GFG | 
"D"AGA cAG | AGA cde | "D"fed cAG | Adc d3 :|
|: "D"f2 d d^cd | f2 g agf | "C"e2 ^c cBc | e2 f gfe | 
"D"f2 g agf | "C"e2 f gfe | "D"fed cAG | Adc d3 :|
|: "D"f2 g e2 e | d2 e d2 d | "D"ABA GAG | F2 F GED | 
"C"c3 cAG | AGA cde | "D"fed cAG | Adc d3 :|